X: 1
T: WITCH OF THE WAVE -- REEL
B: Ryan's Mammoth Collection of Fiddle Tunes
R: REEL
M: 2/4
L: 1/16
Z: Contributed 20000424212424 by Ivan Bradley bradleyi:peoplepc.com
K: G
uD2 |\
GABc d"4"edB | cdef gage | d"4"edB cBAG |FG"4"AG FDEF |
GABc d"4"edB | cdef gfga | bagf gfed | ^cdef g2 :|
|: (ufg) |\
afdf gfed | ^cABc defg | afdf gfed | ^cABc d2(fg) |
afdf gfed | ^cABc defg | afdf gfed | ^cABc d2 :|
